assets/Ant/Flat/ant_flat.svg

<svg width="32" height="32" viewBox="0 0 32 32" fill="none" xmlns="http://www.w3.org/2000/svg">
<path d="M2.01001 2.43994C2.01001 2.1638 2.23387 1.93994 2.51001 1.93994C6.16615 1.93994 9.12001 4.8938 9.12001 8.54994C9.12001 8.82608 8.89615 9.04994 8.62001 9.04994C8.34387 9.04994 8.12001 8.82608 8.12001 8.54994C8.12001 5.44608 5.61387 2.93994 2.51001 2.93994C2.23387 2.93994 2.01001 2.71608 2.01001 2.43994Z" fill="#533566"/>
<path d="M16.8307 15.9566C17.0554 15.796 17.1074 15.4837 16.9468 15.2591C16.7862 15.0344 16.4739 14.9825 16.2493 15.143L15.7141 15.5255C15.6744 15.5154 15.6328 15.51 15.59 15.51C15.3272 15.51 15.1117 15.7128 15.0915 15.9705L9.63628 19.8693C8.64813 19.0569 7.33505 18.6673 6.05126 18.6673C4.62519 18.6673 3.16467 19.148 2.15646 20.1563C1.96119 20.3515 1.96119 20.6681 2.15646 20.8634C2.35172 21.0586 2.6683 21.0586 2.86356 20.8634C3.64535 20.0816 4.82983 19.6673 6.05126 19.6673C7.27259 19.6673 8.46028 20.0815 9.24744 20.8643C9.42042 21.0364 9.69227 21.0584 9.89074 20.9166L14.3964 17.6964L7.186 29.2348C7.03966 29.469 7.11087 29.7774 7.34504 29.9238C7.57922 30.0701 7.88769 29.9989 8.03403 29.7647L15.09 18.4735V29.5C15.09 29.7762 15.3139 30 15.59 30C15.8661 30 16.09 29.7762 16.09 29.5V16.8733L16.464 16.2747C16.4816 16.2467 16.496 16.2175 16.5074 16.1877L16.8307 15.9566Z" fill="#533566"/>
<path d="M13.0201 16.0369C12.0207 16.8332 10.4005 17 8.57001 17C5.53001 17 3.07001 16.54 3.07001 13.5C3.07001 10.46 5.53001 8 8.57001 8C11.61 8 14.07 10.46 14.07 13.5C14.07 13.5766 14.0684 13.6516 14.0654 13.725C14.5948 13.267 15.2851 12.99 16.04 12.99C17.7079 12.99 19.06 14.3421 19.06 16.01C19.06 16.1999 19.0425 16.3857 19.009 16.5659C19.6435 15.5478 20.7032 14.9399 22.47 14.9399C26.63 14.9399 30 18.3099 30 22.4699C30 26.6299 26.63 29.9999 22.47 29.9999C18.31 29.9999 18.07 26.6299 18.07 22.4699C18.07 20.6976 18.1136 19.0687 18.4853 17.7827C17.9364 18.5385 17.0456 19.03 16.04 19.03C14.3811 19.03 13.0346 17.6924 13.0201 16.0369Z" fill="#635994"/>
<path d="M6.56 10.52C6.97 10.52 7.31 10.85 7.31 11.27V12.15C7.31 12.56 6.98 12.9 6.56 12.9C6.15 12.9 5.81 12.57 5.81 12.15V11.27C5.82 10.86 6.15 10.52 6.56 10.52Z" fill="#533566"/>
</svg>

<svg xmlns="http://www.w3.org/2000/svg" width="32" height="32" fill="none"><path fill="#533566" d="M2.01 2.44a.5.5 0 0 1 .5-.5 6.603 6.603 0 0 1 6.61 6.61.5.5 0 0 1-1 0 5.603 5.603 0 0 0-5.61-5.61.5.5 0 0 1-.5-.5ZM16.83 15.957a.5.5 0 1 0-.58-.814l-.536.382a.503.503 0 0 0-.623.445l-5.455 3.9c-.988-.813-2.3-1.203-3.585-1.203-1.426 0-2.886.481-3.895 1.49a.5.5 0 1 0 .708.706c.781-.781 1.966-1.196 3.187-1.196 1.222 0 2.41.414 3.196 1.197a.5.5 0 0 0 .644.053l4.505-3.22-7.21 11.538a.5.5 0 1 0 .848.53l7.056-11.291V29.5a.5.5 0 1 0 1 0V16.873l.374-.598a.497.497 0 0 0 .043-.087l.324-.231Z"/><path fill="#635994" d="M13.02 16.037c-1 .796-2.62.963-4.45.963-3.04 0-5.5-.46-5.5-3.5S5.53 8 8.57 8a5.497 5.497 0 0 1 5.495 5.725 3.02 3.02 0 0 1 4.944 2.84c.634-1.017 1.694-1.625 3.461-1.625 4.16 0 7.53 3.37 7.53 7.53S26.63 30 22.47 30s-4.4-3.37-4.4-7.53c0-1.772.044-3.401.415-4.687a3.02 3.02 0 0 1-5.465-1.746Z"/><path fill="#533566" d="M6.56 10.52c.41 0 .75.33.75.75v.88a.749.749 0 1 1-1.5 0v-.88c.01-.41.34-.75.75-.75Z"/></svg>
